X:1
T:Entry of the Clown Section
T:Entry of the Clown Section
T:Julius Fučík arr. Eric Russ 
%%score 1 2 3 4
L:1/8
Q:1/2=110
M:2/2
K:C
V:1 bass nm="Trombone" snm="Tbn."
V:2 bass nm="Trombone" snm="Tbn."
V:3 bass nm="Trombone" snm="Tbn."
V:4 bass nm="Trombone" snm="Tbn."
V:1
"^Clown tempo.""^When you say \"And, down\" on the field\"" z8 | z8 | %2
!mp!!<(!!<(! (!>!E^D=D^C =CB,_B,A, | ^G,=G,^F,=F, E,_E,D,^C,)!<)!!<)! |"^Small Bore Trombones" z8 | %5
 z8 |!mp!!<(! (^F=FE^D =D^C=CB, | ^A,=A,^G,=G, ^F,=F,E,^D,)!<)! |"^The Mellophone Section" z8 | %9
 z8 |!mf! (!>!G,,!<(!^G,,A,,^A,, B,,C,^C,D, | ^D,E,F,^F, G,^G,A,^A,)!<)! |: %12
!f!"^Front Ensemble tearing 1st Number" .C2 .B,2 ^A,B,A,=A, | .^G,2 .=G,2 (^F,2 .G,2) | %14
 .A,2 .^G,2 =G,^G,=G,^F, | .F,2 .E,2 (^D,2 .E,2) | .G,2 F,F, !>!^C,2 .D,2 | %17
 .G,2 F,F, !>!^C,2 .D,2 |"^Playing A natural in the Key of Eb" (B,,C,^C,D, ^D,E,F,^F, | %19
 G,^G,A,B, A,2) .=G,2 |"^Woodwinds rushing triplets" .C2 .B,2 ^A,B,A,=A, | %21
 .^G,2 .=G,2 (^F,2 .G,2) | .A,2 ._A,2 G,A,G,_G, | ._E,2 .B,2 (_B,2 .=B,2) | %24
 .B,2 B,B, !>!^D2 .^F,2 | E^FEE !>!B,2 .^F,2 | B,2 B,B, B,2 B,2 | (B,^A,=A,^G, =G,^F,=F,E,) :| %28
"^Play it again if someone moves during a hold 8." C,2 z2 z2 D,2 | C,2 z2 z4 |] %30
V:2
 z8 | z8 |!mp!!<(!!<(! (!>!E^D=D^C =CB,_B,A, | ^G,=G,^F,=F, E,_E,D,^C,)!<)!!<)! | z8 | z8 | %6
!mp!!<(! (^F=FE^D =D^C=CB, | ^A,=A,^G,=G, ^F,=F,E,^D,)!<)! |!ff! !>!G6 !^!G!^!G | !>!G6 !^!G!^!G | %10
 G4!mf!!<(! (B,,C,^C,D, | ^D,E,F,^F, G,^G,A,_B,)!<)! |:!f! .C2 .B,2 ^A,B,A,=A, | %13
 .^G,2 .=G,2 (^F,2 .G,2) | .A,2 .^G,2 =G,^G,=G,^F, | .F,2 .E,2 (^D,2 .E,2) | %16
 .G,2 F,F, !>!^C,2 .D,2 | .G,2 F,F, !>!^C,2 .D,2 | (B,,C,^C,D, ^D,E,F,^F, | G,^G,A,B, A,2) .=G,2 | %20
 .C2 .B,2 _B,=B,_B,A, | .^G,2 .=G,2 (^F,2 .G,2) | .A,2 ._A,2 G,A,G,_G, | .F,2 .E,2 (_E,2 .=E,2) | %24
 .^D,2 D,D, !>!^F,2 .B,,2 | G,A,G,^F, !>!E,2 .B,,2 | ^D,4 D,4 | (B,^A,=A,^G, =G,^F,=F,E,) :| %28
 C2 z2 z2 G,2 | C,2 z2 z4 |] %30
V:3
!f! !>!E6 !^!E!^!E | !>!E6 !^!E!^!E |!<(! E8- | E8!<)! |!f! !>!^F6 !^!F!^!F | !>!^F6 !^!F!^!F | %6
 !>!^F8- | F8 |!ff! !>!G,6 !^!G,!^!G, | !>!G,6 !^!G,!^!G, | G,8- | G,8 |:!f! .C,,2 z2 !^!G,,2 z2 | %13
 .C,,2 z2 !^!G,,2 z2 | .C,,2 z2 !^!G,,2 z2 | .C,,2 z2 !^!G,,2 z2 | .B,,2 z2 !>!G,,2 z2 | %17
 .B,,2 z2 !>!G,,2 z2 | !^!D,2 z2 !^!G,,2 z2 | !^!D,2 z2 !^!G,,2 z2 | .C,,2 z2 !^!G,,2 z2 | %21
 .C,,2 z2 !^!G,,2 z2 | .C,,2 z2 !^!G,,2 z2 | .C,,2 z2 !^!G,,2 z2 | !^!B,,,2 z2 !>!B,,,4 | %25
 !^!E,,2 z2 !>!E,,4 | !^!B,,,2 z2 !^!B,,,4 | B,B,B,B, B,B,B, z :| !^!C,,2 z2 z2 G,,2 | %29
 C,,2 z2 z4 |] %30
V:4
!f! !>!E,6 !^!E,!^!E, | !>!E,6 !^!E,!^!E, |!<(! E,8- | E,8!<)! |!f! !>!^F,6 !^!F,!^!F, | %5
 !>!^F,6 !^!F,!^!F, | !>!^F,8- | F,8 |!ff! !>!G,6 !^!G,!^!G, | !>!G,6 !^!G,!^!G, | G,8- | G,8 |: %12
!f! z2 !^![G,E]2 z2 !^![G,E]2 | z2 !^![G,E]2 z2 !^![G,E]2 | z2 !^![G,E]2 z2 !^![G,E]2 | %15
 z2 !^![G,E]2 z2 !^![G,E]2 | z2 !^![G,F]2 z2 !^![G,F]2 | z2 !^![G,F]2 z2 !^![G,F]2 | %18
 z2 !^![G,F]2 z2 !^![G,F]2 | z2 !^![G,F]2 z2 !^![G,F]2 | .E2 .E2 EEEE | .E2 .E2 (E2 .E2) | %22
 .E2 .E2 EEEE | .E2 .C2 (B,2 .C2) | .^F,2 F,F, !>!_E,4 | ^C,2 E,^D, !>!E,4 | %26
 z2 !^![B,,^F,]2 z2 !^![B,,F,]2 | (B,^A,=A,^G, =G,^F,=F,E,) :| C2 z2 z2 D,2 | C,2 z2 z4 |] %30

